Papirus/64x64/apps/gmail.svg

<?xml version="1.0" encoding="UTF-8" standalone="no"?>
<svg
   id="_图层_1"
   version="1.1"
   viewBox="0 0 64 64" width="64" height="64"
   sodipodi:docname="gmail.svg"
   xml:space="preserve"
   inkscape:version="1.4 (e7c3feb100, 2024-10-09)"
   xmlns:inkscape="http://www.inkscape.org/namespaces/inkscape"
   xmlns:sodipodi="http://sodipodi.sourceforge.net/DTD/sodipodi-0.dtd"
   xmlns="http://www.w3.org/2000/svg"
   xmlns:svg="http://www.w3.org/2000/svg"><sodipodi:namedview
     id="namedview26"
     pagecolor="#505050"
     bordercolor="#eeeeee"
     borderopacity="1"
     inkscape:showpageshadow="0"
     inkscape:pageopacity="0"
     inkscape:pagecheckerboard="0"
     inkscape:deskcolor="#505050"
     inkscape:zoom="10.6875"
     inkscape:cx="32"
     inkscape:cy="28.912281"
     inkscape:window-width="1920"
     inkscape:window-height="939"
     inkscape:window-x="0"
     inkscape:window-y="34"
     inkscape:window-maximized="1"
     inkscape:current-layer="_图层_1" /><!-- Generator: Adobe Illustrator 29.0.1, SVG Export Plug-In . SVG Version: 2.1.0 Build 192)  --><defs
     id="defs6"><style
       id="style1">
      .st0 {
        fill-opacity: .5;
      }

      .st0, .st1, .st2, .st3, .st4, .st5, .st6, .st7 {
        fill: #fff;
      }

      .st8 {
        fill: #133c9a;
      }

      .st2, .st9 {
        display: none;
      }

      .st3 {
        fill-opacity: .2;
      }

      .st4 {
        fill-opacity: .9;
      }

      .st10 {
        fill: #3370ff;
      }

      .st11 {
        fill: url(#_未命名的渐变_3);
      }

      .st12 {
        fill: url(#_未命名的渐变);
      }

      .st5 {
        fill-opacity: .3;
      }

      .st6 {
        fill-opacity: 0;
      }

      .st7 {
        fill-opacity: .7;
      }

      .st13 {
        fill: #00d6b9;
      }

      .st14 {
        fill: url(#_未命名的渐变_2);
      }
    </style><radialGradient
       id="_未命名的渐变"
       data-name="未命名的渐变"
       cx="123.9"
       cy="-40.2"
       fx="123.9"
       fy="-40.2"
       r="59.4"
       gradientTransform="translate(-26.8 25.5) scale(.6 -.7)"
       gradientUnits="userSpaceOnUse"><stop
         offset="0"
         stop-color="#db202e"
         id="stop1" /><stop
         offset="1"
         stop-color="#e01b24"
         id="stop2" /></radialGradient><radialGradient
       id="_未命名的渐变_2"
       data-name="未命名的渐变 2"
       cx="67.6"
       cy="26.8"
       fx="67.6"
       fy="26.8"
       r="105.2"
       gradientTransform="translate(-26.6 25.3) scale(.6 -.7)"
       gradientUnits="userSpaceOnUse"><stop
         offset="0"
         stop-color="#ffb648"
         id="stop3" /><stop
         offset="1"
         stop-color="#ff7800"
         stop-opacity="0"
         id="stop4" /></radialGradient><radialGradient
       id="_未命名的渐变_3"
       data-name="未命名的渐变 3"
       cx="61.7"
       cy="18.6"
       fx="61.7"
       fy="18.6"
       r="68"
       gradientTransform="translate(-26.8 25.8) scale(.6 -.7)"
       gradientUnits="userSpaceOnUse"><stop
         offset="0"
         stop-color="#c64600"
         id="stop5" /><stop
         offset="1"
         stop-color="#a51d2d"
         id="stop6" /></radialGradient></defs><path
     class="st1"
     d="M47.5,64.1H13.8c-7.6,0-13.8-6.3-13.8-13.8V13.7C0,6.2,6.2,0,13.7,0h36.6c7.5,0,13.7,6.2,13.7,13.7v36.6c0,7.5-6.2,13.7-13.7,13.7h-2.9.1Z"
     id="path6"
     style="fill:#ebebeb;fill-opacity:1" /><g
     id="g26"
     transform="matrix(0.88638262,0,0,0.91296243,3.8228904,2.8846681)"><path
       style="opacity:0.2"
       d="M 4.0004312,18.62561 V 50.18366 C 4.0004312,52.292653 5.6129638,54 7.6019315,54 H 16.000224 V 30.078537 L 6.5550747,23.039596 C 4.8620518,21.7902 4.1108005,20.212293 4.0199621,18.641235 Z m 55.9990338,0 -0.0196,0.01562 c -0.09084,1.571057 -0.84209,3.148964 -2.535113,4.398362 l -9.445081,7.038945 V 54 h 8.398293 c 1.988968,0 3.6015,-1.707347 3.6015,-3.81634 z"
       id="path1" /><path
       style="fill:#34a853"
       d="m 59.999465,17.625645 -0.0196,0.01562 c -0.09084,1.571059 -0.84209,3.148965 -2.535113,4.398363 l -9.445081,7.038944 v 23.921464 h 8.398293 c 1.988968,0 3.6015,-1.707347 3.6015,-3.816341 z"
       id="path2" /><path
       style="fill:#4285f4"
       d="m 4.0004312,17.625645 0.0196,0.01562 c 0.090838,1.571059 0.8420895,3.148965 2.5351122,4.398363 l 9.4450806,7.038944 V 53.000035 H 7.6019311 c -1.9889677,0 -3.6014999,-1.707347 -3.6014999,-3.816341 z"
       id="path3" /><path
       style="opacity:0.2"
       d="M 10.262042,12.004631 C 5.1802527,11.787033 1.1852035,19.076803 6.5550747,23.039596 l 9.4451493,7.038941 15.999724,11.92167 15.999724,-11.92167 9.445149,-7.038941 c 5.369872,-3.962793 1.375283,-11.252492 -3.706966,-11.034965 -1.172828,0.0502 -2.402706,0.501616 -3.589782,1.484349 L 47.999672,15.059266 31.999948,26.742658 16.000224,15.059266 13.851824,13.48898 c -1.187075,-0.982733 -2.417061,-1.434134 -3.589782,-1.484349 z"
       id="path4" /><path
       style="fill:#ea4335"
       d="M 16.000224,14.0593 V 29.078571 L 31.999948,41.000242 47.999672,29.078571 V 14.0593 L 31.999948,25.742693 Z"
       id="path5" /><path
       style="fill:#c5221f"
       d="M 10.262042,11.004665 C 5.1802527,10.787067 1.1852036,18.076837 6.5550747,22.039631 l 9.4451493,7.03894 V 14.0593 l -2.1484,-1.570285 c -1.187075,-0.982734 -2.417061,-1.434135 -3.589782,-1.48435 z"
       id="path6-5" /><path
       style="fill:#fbbc04"
       d="m 53.737855,11.004665 c -1.172828,0.0502 -2.402706,0.501616 -3.589782,1.48435 L 47.999672,14.0593 v 15.019271 l 9.445149,-7.03894 c 5.369872,-3.962794 1.375283,-11.252493 -3.706966,-11.034966 z"
       id="path7" /><path
       style="opacity:0.2;fill:#ffffff"
       d="m 10.261719,11.003906 c -3.5343139,-0.151336 -6.5200277,3.328379 -6.2167971,6.794922 0.278113,-3.103406 3.0237873,-5.929691 6.2167971,-5.792969 1.172721,0.05022 2.402768,0.501641 3.589843,1.484375 L 16,15.060547 32,26.742188 48,15.060547 50.148438,13.490234 c 1.187075,-0.982734 2.417015,-1.434175 3.589843,-1.484375 3.193298,-0.136677 5.938794,2.68958 6.216797,5.792969 0.303342,-3.466526 -2.682164,-6.946209 -6.216797,-6.794922 -1.172828,0.0502 -2.402767,0.501641 -3.589843,1.484375 L 48,14.058594 32,25.742188 16,14.058594 13.851562,12.488281 c -1.187075,-0.982734 -2.417122,-1.43416 -3.589843,-1.484375 z"
       id="path8" /></g></svg>

<svg xmlns="http://www.w3.org/2000/svg" width="64" height="64" version="1.1">
 <path style="opacity:0.2" d="M 4.0004312,18.62561 V 50.18366 C 4.0004312,52.292653 5.6129638,54 7.6019315,54 H 16.000224 V 30.078537 L 6.5550747,23.039596 C 4.8620518,21.7902 4.1108005,20.212293 4.0199621,18.641235 Z m 55.9990338,0 -0.0196,0.01562 c -0.09084,1.571057 -0.84209,3.148964 -2.535113,4.398362 l -9.445081,7.038945 V 54 h 8.398293 c 1.988968,0 3.6015,-1.707347 3.6015,-3.81634 z"/>
 <path style="fill:#34a853" d="m 59.999465,17.625645 -0.0196,0.01562 c -0.09084,1.571059 -0.84209,3.148965 -2.535113,4.398363 l -9.445081,7.038944 v 23.921464 h 8.398293 c 1.988968,0 3.6015,-1.707347 3.6015,-3.816341 z"/>
 <path style="fill:#4285f4" d="m 4.0004312,17.625645 0.0196,0.01562 c 0.090838,1.571059 0.8420895,3.148965 2.5351122,4.398363 l 9.4450806,7.038944 V 53.000035 H 7.6019311 c -1.9889677,0 -3.6014999,-1.707347 -3.6014999,-3.816341 z"/>
 <path style="opacity:0.2" d="M 10.262042,12.004631 C 5.1802527,11.787033 1.1852035,19.076803 6.5550747,23.039596 l 9.4451493,7.038941 15.999724,11.92167 15.999724,-11.92167 9.445149,-7.038941 c 5.369872,-3.962793 1.375283,-11.252492 -3.706966,-11.034965 -1.172828,0.0502 -2.402706,0.501616 -3.589782,1.484349 L 47.999672,15.059266 31.999948,26.742658 16.000224,15.059266 13.851824,13.48898 c -1.187075,-0.982733 -2.417061,-1.434134 -3.589782,-1.484349 z"/>
 <path style="fill:#ea4335" d="M 16.000224,14.0593 V 29.078571 L 31.999948,41.000242 47.999672,29.078571 V 14.0593 L 31.999948,25.742693 Z"/>
 <path style="fill:#c5221f" d="M 10.262042,11.004665 C 5.1802527,10.787067 1.1852036,18.076837 6.5550747,22.039631 l 9.4451493,7.03894 V 14.0593 l -2.1484,-1.570285 c -1.187075,-0.982734 -2.417061,-1.434135 -3.589782,-1.48435 z"/>
 <path style="fill:#fbbc04" d="m 53.737855,11.004665 c -1.172828,0.0502 -2.402706,0.501616 -3.589782,1.48435 L 47.999672,14.0593 v 15.019271 l 9.445149,-7.03894 c 5.369872,-3.962794 1.375283,-11.252493 -3.706966,-11.034966 z"/>
 <path style="opacity:0.2;fill:#ffffff" d="M 10.261719 11.003906 C 6.7274051 10.85257 3.7416913 14.332285 4.0449219 17.798828 C 4.3230349 14.695422 7.0687092 11.869137 10.261719 12.005859 C 11.43444 12.056074 12.664487 12.5075 13.851562 13.490234 L 16 15.060547 L 32 26.742188 L 48 15.060547 L 50.148438 13.490234 C 51.335513 12.5075 52.565453 12.056059 53.738281 12.005859 C 56.931579 11.869182 59.677075 14.695439 59.955078 17.798828 C 60.25842 14.332302 57.272914 10.852619 53.738281 11.003906 C 52.565453 11.054106 51.335514 11.505547 50.148438 12.488281 L 48 14.058594 L 32 25.742188 L 16 14.058594 L 13.851562 12.488281 C 12.664487 11.505547 11.43444 11.054121 10.261719 11.003906 z"/>
</svg>
